X: 1
T: Angus MacKinnon's Hornpipe
C: Angus MacKinnon
R: hornpipe, reel
M: C
L: 1/8
K: D
   AG | "D"F2FA dAFD | "G"G2GB "(Em)"dBGB |1 "A7"A2Ac ecAc | "D"dcde dB :|2 "A7"A2Ac eAce |"D"d2f2 d2 |]
|: dc | "G"BGDG BdcB | "D"ADFA       d2d2 |1 "A7"e2Ac ecAc | "D"dcde d2 :|2 "A7"e2Ac eAce |"D"d2f2 d2 |]
